static/svgs/conference/index/language-icon-solid.svg

<?xml version="1.0" encoding="UTF-8"?>
<svg width="20px" height="20px" viewBox="0 0 20 20" version="1.1" xmlns="http://www.w3.org/2000/svg" xmlns:xlink="http://www.w3.org/1999/xlink">
    <!-- Generator: Sketch 53 (72520) - https://sketchapp.com -->
    <title>Conference/Language</title>
    <desc>Created with Sketch.</desc>
    <defs>
        <path d="M9,16 C8,17 5.5,18.5 5,18 C4.5000051,17.5000051 5,17 5,16 L4,16 C2.8954305,16 2,15.1045695 2,14 L2,4 C2,2.8954305 2.8954305,2 4,2 L16,2 C17.1045695,2 18,2.8954305 18,4 L18,14 C18,15.1045695 17.1045695,16 16,16 L9,16 Z M6,10 C5.44771525,10 5,10.4477153 5,11 C5,11.5522847 5.44771525,12 6,12 L12,12 C12.5522847,12 13,11.5522847 13,11 C13,10.4477153 12.5522847,10 12,10 L6,10 Z M6,6 C5.44771525,6 5,6.44771525 5,7 C5,7.55228475 5.44771525,8 6,8 L14,8 C14.5522847,8 15,7.55228475 15,7 C15,6.44771525 14.5522847,6 14,6 L6,6 Z" id="path-1"></path>
    </defs>
    <g id="Conference/Language" stroke="none" stroke-width="1" fill="none" fill-rule="evenodd">
        <mask id="mask-2" fill="white">
            <use xlink:href="#path-1"></use>
        </mask>
        <use id="Language" fill="#575E75" xlink:href="#path-1"></use>
        <g id="Blue/1_Blue" mask="url(#mask-2)" fill="#4D97FF">
            <rect id="Primary-Blue" x="0" y="0" width="20" height="20"></rect>
        </g>
    </g>
</svg>

<svg width="20" height="20" xmlns="http://www.w3.org/2000/svg" xmlns:xlink="http://www.w3.org/1999/xlink"><defs><path d="M9 16c-1 1-3.5 2.5-4 2s0-1 0-2H4a2 2 0 0 1-2-2V4a2 2 0 0 1 2-2h12a2 2 0 0 1 2 2v10a2 2 0 0 1-2 2H9zm-3-6a1 1 0 0 0 0 2h6a1 1 0 0 0 0-2H6zm0-4a1 1 0 1 0 0 2h8a1 1 0 0 0 0-2H6z" id="a"/></defs><g fill="none" fill-rule="evenodd"><mask id="b" fill="#fff"><use xlink:href="#a"/></mask><use fill="#575E75" xlink:href="#a"/><g mask="url(#b)" fill="#4D97FF"><path d="M0 0h20v20H0z"/></g></g></svg>
